static/images/mobile/copyright/wikipedia-wordmark-ne.svg

<?xml version="1.0" encoding="UTF-8"?>
<svg width="120px" height="24px" viewBox="0 0 120 24" version="1.1" xmlns="http://www.w3.org/2000/svg" xmlns:xlink="http://www.w3.org/1999/xlink">
    <title>wikipedia-wordmark-ne</title>
    <g id="Page-1" stroke="none" stroke-width="1" fill="none" fill-rule="evenodd">
        <path d="M120,7.42253037 L120,9.22095544 L116.162489,9.22095544 L116.162489,23.6335702 L115.693888,23.6335702 L114.174057,21.8731915 L114.174057,9.221068 L111.349842,9.221068 L111.349842,7.42253037 L120,7.42253037 L120,7.42253037 Z M111.67909,7.42253037 L111.67909,9.22095544 L107.828972,9.22095544 L107.828972,23.6335702 L107.563019,23.6335702 L105.840574,21.9111254 L105.840574,18.2636217 C105.080696,18.8799813 104.122407,19.188161 102.965705,19.188161 C102.12981,19.188161 101.272827,18.8968695 100.394758,18.3142865 C99.5250932,17.731696 98.3472676,16.6045239 96.8612809,14.9327701 L96.8612809,14.6794687 C98.1784225,14.5612622 99.1662787,14.2193097 99.8248495,13.6536112 C100.48342,13.0794704 100.812706,12.2858236 100.812706,11.2726706 C100.812706,10.470544 100.517193,9.78664644 99.9261678,9.22097795 L95.7468022,9.22097795 L95.7468022,7.42253037 L111.67909,7.42253037 L111.67909,7.42253037 Z M105.84054,9.22095544 L100.685926,9.22095544 C101.89328,10.0483713 102.496958,11.0699965 102.496958,12.2858311 C102.496958,13.282167 102.184557,14.1053805 101.559755,14.7554715 C100.943396,15.3971578 100.014635,15.8615193 98.7734738,16.1485559 C99.3729413,16.6973624 99.9344074,17.106868 100.457872,17.3770726 C100.989794,17.6472547 101.487925,17.7823458 101.952264,17.7823458 C102.796564,17.7823458 103.569124,17.5501575 104.269943,17.0857811 C104.979175,16.6213971 105.41821,16.1992469 105.587048,15.8193305 C105.755908,15.4393841 105.840338,14.7005931 105.840338,13.6029576 L105.840338,9.22086539 L105.84054,9.22095544 Z M96.0762865,7.42219268 L96.0762865,9.22061775 L92.0994786,9.22061775 L92.3654434,13.3873763 L86.4383062,13.3873763 C85.484219,13.3873763 85.0071754,13.653341 85.0071754,14.1852705 C85.0071754,14.4301259 85.1507125,14.7762995 85.4377866,15.2237915 C85.7248533,15.6628412 85.9570415,15.882366 86.1343513,15.882366 C86.1681278,15.882366 86.4129832,15.831705 86.8689174,15.7303829 C87.3248516,15.6290684 87.7681262,15.5784111 88.1987411,15.5784111 C89.6340743,15.5784111 90.7528042,15.9963589 91.5549308,16.8322546 C92.3654621,17.6596704 92.7707278,18.5250952 92.7707278,19.4285289 C92.7707278,20.1715372 92.3823466,20.8216657 91.6055843,21.3789145 C90.8372267,21.9277285 89.9760043,22.2021355 89.0219171,22.2021355 C87.7807933,22.2021355 86.5269874,21.6913229 85.2604993,20.6696977 C83.9940113,19.6395927 82.7190809,18.0987126 81.4357083,16.0470575 L81.9929646,15.7810927 C83.0061851,17.3937507 84.0109258,18.6053454 85.0071867,19.4158767 C86.0119274,20.2180034 87.0082259,20.6190667 87.996082,20.6190667 C88.8995157,20.6190667 89.7100846,20.3531019 90.4277887,19.8211724 C91.1454627,19.2808082 91.5042998,18.7193421 91.5042998,18.1367741 C91.5042998,17.8159309 91.3987604,17.5415239 91.1876815,17.3135531 C90.9850449,17.0855822 90.7275262,16.9715968 90.4151253,16.9715968 C90.0858399,16.9715968 89.465278,17.0855822 88.5534396,17.3135531 C87.6500059,17.5499662 87.1223088,17.6681727 86.9703483,17.6681727 C86.6241784,17.6681727 85.9951742,17.07714 85.0833358,15.8950744 C84.1714974,14.7046042 83.7155782,13.8054104 83.7155782,13.1974931 C83.7155782,12.6655711 83.9139937,12.2645078 84.3108246,11.9943032 C84.7076556,11.7241135 85.3071306,11.5890187 86.1092497,11.5890187 L90.5799293,11.5890187 L90.5799293,9.22068528 L80.5999478,9.22068528 L80.5999478,7.42219268 L96.0762865,7.42219268 L96.0762865,7.42219268 Z M80.9416339,7.42219268 L80.9416339,9.22061775 L77.1041233,9.22061775 L77.1041233,23.594961 L76.5342036,23.594961 L75.11568,21.9738232 L75.11568,9.22039262 L72.2914649,9.22039262 L72.2914649,7.42196755 L75.5463475,7.42196755 C74.5162425,6.43411136 74.00119,5.34070824 74.00119,4.14175819 C74.00119,2.72330956 74.7357411,1.63834869 76.2048432,0.886875589 C77.3700242,0.295850323 78.733617,0.00033769013 80.2956214,0.00033769013 C82.7525798,0.00033769013 84.9942794,0.620937107 87.0207204,1.86213594 C89.0555661,3.094855 90.8708756,4.94813596 92.4666491,7.42197881 L91.605438,7.42197881 C89.99278,5.52220918 88.2703727,4.09952066 86.4382162,3.15391325 C84.6060596,2.19982607 82.6683186,1.72278248 80.6249931,1.72278248 C79.0798732,1.72278248 77.9231344,1.98030122 77.1547768,2.4953387 C76.3864192,3.00193393 76.0022404,3.76181177 76.0022404,4.77497221 C76.0022404,5.67840587 76.2682014,6.56071514 76.8001234,7.42190001 L80.9415551,7.42190001 L80.9416339,7.42219268 Z M72.6208366,7.42215891 L72.6208366,9.22061775 L68.7707188,9.22061775 L68.7707188,23.6332325 L68.2767907,23.6332325 L66.7822868,21.9488341 L66.7822868,16.8448729 C66.1490427,17.3936869 65.3891649,17.6680939 64.5026533,17.6680939 C63.7427754,17.6680939 62.9871,17.4485691 62.2356269,17.0095194 C61.4841537,16.5704697 60.8382276,16.0469749 60.2978483,15.4390352 C59.7659263,14.8226756 59.4999653,14.0754424 59.4999653,13.1973355 L59.4999653,9.22058398 L57.6002332,9.22058398 L57.6002332,7.42215891 L72.6208366,7.42215891 L72.6208366,7.42215891 Z M66.7822868,9.22060649 L61.4883186,9.22060649 L61.4883186,14.1598987 C61.4883186,15.2659465 61.6951801,15.9625262 62.108903,16.2496378 C62.5226259,16.5282622 63.0081118,16.6675744 63.5653605,16.6675744 C64.5616965,16.6675744 65.6339752,16.0174458 66.7821967,14.7171887 L66.7821967,9.22060649 L66.7822868,9.22060649 Z M57.9422345,7.42185499 L57.9422345,9.22028006 L54.1047239,9.22028006 L54.1047239,23.5946233 L53.5348043,23.5946233 L52.1162806,21.9734855 L52.1162806,9.22005493 L49.2920655,9.22005493 L49.2920655,7.42162986 L52.5469481,7.42162986 C51.5168431,6.43377367 51.0017906,5.34037055 51.0017906,4.1414205 C51.0017906,2.72297187 51.7363417,1.638011 53.2054438,0.886537899 C54.3706249,0.295512633 55.7342176,0 57.2962221,0 C59.7531804,0 61.9948801,0.620599417 64.021321,1.86179825 C66.0561667,3.09451731 67.8714763,4.94779827 69.4672497,7.42164112 L68.6060386,7.42164112 C66.9933806,5.52187149 65.2709733,4.09918297 63.4388168,3.15357556 C61.6066602,2.19948838 59.6689192,1.72244479 57.6255938,1.72244479 C56.0804738,1.72244479 54.923735,1.97996353 54.1553774,2.49500101 C53.3870198,3.00159624 53.002841,3.76147408 53.002841,4.77463452 C53.002841,5.67806818 53.268802,6.56037745 53.800724,7.42156232 L57.9421557,7.42156232 L57.9422345,7.42185499 Z M49.6340443,7.42185499 L49.6340443,9.22028006 L42.0857694,9.22028006 L42.0857694,13.1970316 C42.5501458,12.9268495 43.0905251,12.7917584 43.7069071,12.7917584 C44.7538966,12.7917584 45.7037814,13.235033 46.5565615,14.1215821 C47.4177464,15.0081313 47.8483389,16.1690724 47.8483389,17.6044056 C47.8483389,18.7358176 47.493723,19.9263254 46.7844911,21.175929 L45.3659675,19.7828446 C46.1596143,18.4065697 46.5564377,17.2034173 46.5564377,16.1733874 C46.5564377,15.4135095 46.4044584,14.8436012 46.1004998,14.4636622 C45.8049834,14.0837158 45.3617088,13.8937426 44.770676,13.8937426 C43.9263757,13.8937426 43.0313843,14.3116904 42.0857018,15.1475861 L42.0857018,23.6330637 L41.5791103,23.6330637 L40.097326,21.9486653 L40.097326,16.540783 C38.9406248,17.5371189 37.8430193,18.0352869 36.8045096,18.0352869 C35.7659999,18.0352869 34.9385465,17.7059978 34.3221494,17.0474195 C33.7057899,16.3804064 33.3976101,15.5360685 33.3976101,14.5144058 C33.3976101,13.6109722 33.6804594,12.9017478 34.2461579,12.3867329 C34.8202987,11.8632531 35.4873117,11.6015133 36.2471971,11.6015133 C37.6994147,11.6015133 38.9827873,12.2769686 40.0973148,13.6278792 L40.0973148,9.22046016 L31.9664118,9.22046016 L31.9664118,7.42203509 L49.6343594,7.42203509 L49.6340443,7.42185499 Z M40.0973486,14.4762018 L40.0973486,14.2355638 C39.4472088,13.6529808 38.615553,13.3616893 37.6023701,13.3616893 C36.5553806,13.3616893 35.7406093,13.5685508 35.1580563,13.9822737 C34.5839156,14.3875469 34.2968452,14.8519083 34.2968452,15.3753581 C34.2968452,15.8312998 34.4446034,16.2070363 34.7401198,16.5025677 C35.0440784,16.7896418 35.4577863,16.9331789 35.9812436,16.9331789 C36.9522153,16.9331789 38.3242503,16.1141678 40.0973486,14.4761455 L40.0973486,14.4762018 Z M32.3085145,7.42208011 L32.3085145,9.22050518 L28.4710038,9.22050518 L28.4710038,23.5948484 L27.9010842,23.5948484 L26.4825605,21.9737106 L26.4825605,9.22028006 L23.6583454,9.22028006 L23.6583454,7.42185499 L26.913228,7.42185499 C25.883123,6.43399879 25.3680705,5.34059567 25.3680705,4.14164563 C25.3680705,2.76537074 26.0013146,1.70153427 27.2678026,0.950136206 C28.3316766,0.31689217 29.5981647,0.000270152104 31.0672668,0.000270152104 C33.2878421,0.000270152104 35.314208,0.620869569 37.1463646,1.8620684 C38.9785211,3.09478746 40.6165059,4.94806842 42.0603188,7.42191127 L41.1991076,7.42191127 C39.7721792,5.52214164 38.2481837,4.09945312 36.627121,3.15384571 C35.0059832,2.19975853 33.2877783,1.72271494 31.4725063,1.72271494 C30.1047111,1.72271494 29.078846,1.98023368 28.394911,2.49527117 C27.7110059,3.00186639 27.3690534,3.76174423 27.3690534,4.77490467 C27.3690534,5.67833833 27.6350144,6.5606476 28.1669364,7.42183247 L32.3083681,7.42183247 L32.3085145,7.42208011 Z M24.0256622,7.42208011 L24.0256622,9.22050518 L20.1755332,9.22050518 L20.1755332,23.5948484 L19.6436037,23.5948484 L18.1871462,21.9737106 L18.1871462,17.7690183 C16.7433333,18.7653542 15.4641631,19.2635222 14.3496355,19.2635222 C13.3195306,19.2635222 12.3021077,18.756912 11.297367,17.7436915 C10.3010311,16.7220663 9.80286307,15.7679791 9.80286307,14.88143 C9.80286307,14.2988469 10.0308302,13.7458231 10.4867644,13.2223584 C10.9426986,12.6988711 11.6181539,12.2936054 12.5131303,12.0065613 C13.4165639,11.7110449 14.1806817,11.5632867 14.8054834,11.5632867 C15.9284157,11.5632867 17.0555878,12.1289928 18.1869998,13.2604048 L18.1869998,9.22028006 L8.30843791,9.22028006 L8.30843791,7.42185499 L24.0256622,7.42185499 L24.0256622,7.42208011 Z M18.1871687,14.7550213 L18.1871687,14.1217735 C17.4609773,13.5898515 16.7348685,13.3238905 16.0087747,13.3238905 C15.0124387,13.3238905 13.9612469,13.5982938 12.8551991,14.1471003 C11.7491514,14.687472 11.1961275,15.2995916 11.1961275,15.9834592 C11.1961275,16.5238234 11.3818796,16.9755403 11.7533838,17.3386097 C12.1248879,17.6932293 12.5597203,17.8705392 13.0578807,17.8705392 C13.6320215,17.8705392 14.6114354,17.4652735 15.9961226,16.6547421 C17.3808022,15.835731 18.1111509,15.202487 18.1871687,14.75501 L18.1871687,14.7550213 Z M8.65016907,7.42219268 L8.65016907,9.22061775 L4.81265843,9.22061775 L4.81265843,23.594961 L4.24273879,23.594961 L2.82421512,21.9738232 L2.82421512,9.22039262 L8.8817842e-15,9.22039262 L8.8817842e-15,7.42196755 L3.2548826,7.42196755 C2.22477762,6.43411136 1.70972513,5.34070824 1.70972513,4.14175819 C1.70972513,2.72330956 2.4442762,1.63834869 3.91337835,0.886875589 C5.07855939,0.295850323 6.44215213,0.00033769013 8.00415659,0.00033769013 C10.4611149,0.00033769013 12.7028146,0.620937107 14.7292555,1.86213594 C16.7641012,3.094855 18.5794108,4.94813596 20.1751843,7.42197881 L19.3139731,7.42197881 C17.7013151,5.52220918 15.9789079,4.09952066 14.1467513,3.15391325 C12.3145948,2.19982607 10.3768537,1.72278248 8.33352829,1.72278248 C6.78840834,1.72278248 5.63166956,1.98030122 4.86331195,2.4953387 C4.09495434,3.00193393 3.71077553,3.76181177 3.71077553,4.77497221 C3.71077553,5.67840587 3.97674028,6.56071514 4.50866977,7.42190001 L8.65010153,7.42190001 L8.65016907,7.42219268 Z" id="wikipedia-wordmark-ne" fill="#000000" fill-rule="nonzero"></path>
    </g>
</svg>

<svg xmlns="http://www.w3.org/2000/svg" width="120" height="24"><path fill="#000" fill-rule="nonzero" d="M120 7.423V9.22h-3.838v14.413h-.468l-1.52-1.76V9.22h-2.824V7.423H120Zm-8.32 0V9.22h-3.851v14.413h-.266l-1.722-1.723v-3.647c-.76.616-1.719.924-2.875.924-.836 0-1.693-.291-2.571-.874-.87-.582-2.048-1.71-3.534-3.381v-.254c1.317-.118 2.305-.46 2.964-1.025.658-.575.988-1.368.988-2.381 0-.802-.296-1.486-.887-2.052h-4.18V7.423h15.933Zm-5.84 1.798h-5.154c1.207.827 1.811 1.849 1.811 3.065 0 .996-.312 1.82-.937 2.47-.617.641-1.545 1.106-2.787 1.393.6.548 1.161.958 1.685 1.228.532.27 1.03.405 1.494.405.845 0 1.617-.232 2.318-.696.71-.465 1.148-.887 1.317-1.267.169-.38.253-1.118.253-2.216V9.221Zm-9.764-1.799v1.799H92.1l.266 4.166h-5.927c-.954 0-1.43.266-1.43.798 0 .245.143.591.43 1.039.287.439.519.658.696.658.034 0 .279-.05.735-.152.456-.1.9-.152 1.33-.152 1.435 0 2.554.418 3.356 1.254.81.828 1.216 1.693 1.216 2.597 0 .743-.389 1.393-1.165 1.95a4.34 4.34 0 0 1-2.584.823c-1.241 0-2.495-.51-3.762-1.532-1.266-1.03-2.54-2.571-3.824-4.623l.557-.266c1.013 1.613 2.018 2.824 3.014 3.635 1.005.802 2.001 1.203 2.99 1.203.903 0 1.713-.266 2.43-.798.718-.54 1.077-1.102 1.077-1.684 0-.321-.105-.595-.316-.823a.988.988 0 0 0-.773-.342c-.33 0-.95.114-1.862.342-.903.236-1.43.354-1.583.354-.346 0-.975-.59-1.887-1.773-.912-1.19-1.367-2.09-1.367-2.698 0-.531.198-.932.595-1.203.397-.27.996-.405 1.798-.405h4.47V9.221H80.6V7.422h15.477Zm-15.134 0v1.799h-3.838v14.374h-.57l-1.418-1.621V9.22H72.29V7.422h3.255c-1.03-.988-1.545-2.081-1.545-3.28 0-1.419.735-2.504 2.204-3.255C77.37.296 78.734 0 80.295 0c2.458 0 4.7.62 6.726 1.862 2.035 1.233 3.85 3.086 5.446 5.56h-.862c-1.612-1.9-3.335-3.322-5.167-4.268a12.413 12.413 0 0 0-5.813-1.431c-1.545 0-2.702.257-3.47.772-.769.507-1.153 1.267-1.153 2.28 0 .903.266 1.786.798 2.647h4.142Zm-8.321 0v1.799h-3.85v14.412h-.494l-1.495-1.684v-5.104c-.633.549-1.393.823-2.28.823-.76 0-1.515-.22-2.266-.658a7.899 7.899 0 0 1-1.938-1.571c-.532-.616-.798-1.364-.798-2.242V9.221h-1.9V7.422h15.02Zm-5.839 1.799h-5.294v4.939c0 1.106.207 1.803.62 2.09.415.278.9.418 1.457.418.997 0 2.069-.65 3.217-1.95V9.22Zm-8.84-1.8v1.8h-3.837v14.374h-.57l-1.419-1.622V9.22h-2.824V7.422h3.255c-1.03-.988-1.545-2.082-1.545-3.28 0-1.419.734-2.504 2.203-3.255C54.371.296 55.735 0 57.296 0c2.457 0 4.699.62 6.725 1.862 2.035 1.233 3.85 3.086 5.446 5.56h-.861c-1.613-1.9-3.335-3.323-5.167-4.268a12.413 12.413 0 0 0-5.813-1.432c-1.546 0-2.702.258-3.47.773-.769.507-1.153 1.266-1.153 2.28 0 .903.266 1.785.798 2.647h4.141Zm-8.308 0v1.8h-7.548v3.976c.464-.27 1.005-.405 1.62-.405 1.048 0 1.998.443 2.85 1.33.862.886 1.292 2.047 1.292 3.482 0 1.132-.354 2.322-1.064 3.572l-1.418-1.393c.794-1.376 1.19-2.58 1.19-3.61 0-.76-.152-1.33-.456-1.71-.295-.38-.738-.57-1.33-.57-.844 0-1.739.419-2.684 1.255v8.485h-.507l-1.482-1.684V16.54c-1.156.996-2.254 1.494-3.292 1.494-1.039 0-1.866-.329-2.483-.988-.616-.667-.924-1.51-.924-2.533 0-.903.282-1.612.848-2.127a2.878 2.878 0 0 1 2.001-.785c1.452 0 2.736.675 3.85 2.026V9.22h-8.13V7.422h17.667Zm-9.537 7.055v-.24c-.65-.583-1.481-.874-2.495-.874-1.047 0-1.861.207-2.444.62-.574.406-.861.87-.861 1.393 0 .456.148.832.443 1.128.304.287.718.43 1.241.43.971 0 2.343-.819 4.116-2.457ZM32.31 7.422v1.799H28.47v14.374h-.57l-1.418-1.621V9.22h-2.825V7.422h3.255c-1.03-.988-1.545-2.081-1.545-3.28 0-1.377.633-2.44 1.9-3.192 1.064-.633 2.33-.95 3.8-.95 2.22 0 4.246.62 6.078 1.862 1.833 1.233 3.47 3.086 4.914 5.56h-.86c-1.428-1.9-2.952-3.323-4.573-4.268-1.621-.954-3.34-1.431-5.154-1.431-1.368 0-2.394.257-3.078.772-.684.507-1.026 1.267-1.026 2.28 0 .903.266 1.786.798 2.647h4.141Zm-8.283 0v1.799h-3.85v14.374h-.532l-1.457-1.621v-4.205c-1.444.996-2.723 1.495-3.837 1.495-1.03 0-2.048-.507-3.053-1.52-.996-1.022-1.494-1.976-1.494-2.863 0-.582.228-1.135.684-1.659.456-.523 1.131-.928 2.026-1.215.904-.296 1.668-.444 2.292-.444 1.123 0 2.25.566 3.382 1.697V9.22H8.308V7.422h15.718Zm-5.839 7.333v-.633c-.726-.532-1.452-.798-2.178-.798-.997 0-2.048.274-3.154.823-1.106.54-1.659 1.153-1.659 1.836 0 .54.186.993.557 1.356.372.354.807.532 1.305.532.574 0 1.553-.406 2.938-1.216 1.385-.82 2.115-1.453 2.191-1.9ZM8.65 7.422v1.799H4.813v14.374h-.57l-1.419-1.621V9.22H0V7.422h3.255c-1.03-.988-1.545-2.081-1.545-3.28 0-1.419.734-2.504 2.203-3.255C5.08.296 6.443 0 8.004 0c2.457 0 4.699.62 6.725 1.862 2.035 1.233 3.85 3.086 5.446 5.56h-.861c-1.613-1.9-3.335-3.322-5.167-4.268a12.413 12.413 0 0 0-5.813-1.431c-1.546 0-2.702.257-3.47.772-.769.507-1.153 1.267-1.153 2.28 0 .903.266 1.786.798 2.647H8.65Z"/></svg>
